src/assets/pine.svg

<svg width="42" height="42" viewBox="0 0 42 42" fill="none" xmlns="http://www.w3.org/2000/svg">
<path fill-rule="evenodd" clip-rule="evenodd" d="M6.00003 10.3333C5.33336 9.06668 3.33336 8.26668 5.00003 6.46668C3.13336 5.93334 2.2667 4.33334 2.53336 2.80001C2.73336 1.60001 4.53336 0.200012 5.80003 0.200012C7.33336 0.200012 8.4667 1.40001 8.80003 3.00001C9.53336 2.73335 9.80003 2.46668 10.2667 2.60001C10.7334 2.73335 11.3334 3.46668 11.6667 3.86668C12.2 4.53335 12.6667 4.73335 13.5334 4.40001C28.4 1.13335 40 30.9333 39.3334 41.7333C32.1334 42 -2.06664 26.5333 6.00003 10.3333ZM7.73336 3.60001C7.6667 2.46668 7.00003 1.66668 6.00003 1.60001C4.8667 1.53335 3.8667 2.33335 3.93336 3.53335C4.00003 4.66668 4.73336 5.40001 5.73336 5.40001C6.80003 5.33335 7.6667 4.40001 7.73336 3.60001Z" fill="white"/>
</svg>

<svg width="42" height="42" fill="none" xmlns="http://www.w3.org/2000/svg"><path fill-rule="evenodd" clip-rule="evenodd" d="M6 10.333c-.667-1.266-2.667-2.066-1-3.866C3.133 5.933 2.267 4.333 2.533 2.8c.2-1.2 2-2.6 3.267-2.6 1.533 0 2.667 1.2 3 2.8.733-.267 1-.533 1.467-.4.466.133 1.066.867 1.4 1.267.533.666 1 .866 1.866.533C28.4 1.133 40 30.933 39.333 41.733c-7.2.267-41.4-15.2-33.333-31.4ZM7.733 3.6C7.667 2.467 7 1.667 6 1.6c-1.133-.067-2.133.733-2.067 1.933.067 1.134.8 1.867 1.8 1.867 1.067-.067 1.934-1 2-1.8Z" fill="#fff"/></svg>
